X:307
T: ES TRUG EIN JAEGER EIN GRUENEN HUT
N: E1456
O: Europa, Mitteleuropa, Deutschland, Altmark
R: Staende -, Jaeger - Lied, Liebe
M: 6/8
L: 1/16
K: G
 | D2G2A2B2A2G2 | c2A2G6
=F2 | E2=F2G6D2 | G2E2C4z4 |
G4D2C2E2D2 | G4D2CCEED2 |
D2G2A2B2A2G2 | c2A2G4z4

@@@ Tune index: 4991
